X:1
T:Frère Jacques
C:Traditional (French)
M:4/4
L:1/4
Q:1/4=120
K:G
G A B G | B c d B | d e d c | B A G G |
G A B G | B c d B | d e d c | B A G G |]
w:Fre-re Jac-ques | Fre-re Jac-ques | Dor-mez vous dor | mez vous Son-nez | les ma-ti-nes | Son-nez les ma | ti-nes Din din | don * * *
